svgs/sharp-solid/handshake-angle.svg

<svg xmlns="http://www.w3.org/2000/svg" viewBox="0 0 640 512"><!--! Font Awesome Pro 6.6.0 by @fontawesome - https://fontawesome.com License - https://fontawesome.com/license (Commercial License) Copyright 2024 Fonticons, Inc. --><path d="M640 144L496 0 432 64 224 64l0 32 0 32 0 160 80 0 0-112 0-16s0 0 0 0l16 0 96 0 96 0 32 0 0 32 0 48 96-96zM192 128l-96 0 0 144L0 368 144 512l64-64 224 0 0-64 48 0 0-80 32 0 0-112-96 0-80 0 0 112 0 16-16 0-112 0-16 0 0-16 0-176z"/></svg>

<svg xmlns="http://www.w3.org/2000/svg" viewBox="0 0 640 512"><!--! Font Awesome Pro 6.4.0 by @fontawesome - https://fontawesome.com License - https://fontawesome.com/license (Commercial License) Copyright 2023 Fonticons, Inc. --><path d="M640 144L496 0 432 64H224V96v32V288h80V176 160l0 0 16 0h96l96 0h32v32 48l96-96zM192 128H96V272L0 368 144 512l64-64H432V384h48V304h32V192l-96 0H336V304v16H320 208 192V304 128z"/></svg>
